X: 11324
T: Eamon Coyne's
R: reel
M: 4/4
K: Gmajor
BcdB G3B|ADFA dcBA|B2dB GFGB|ADFA G3A:|
|:BGBd gfed|cBce agfe|fgaf d^cdf|eA^ce d2ef|
gfed ^cdef|afge fgdc|BcdB GFGB|1 A2FA G3 A:|2 A2FA G2dc||
BcdB G3B|ADFA dcBA|B2dB GFGB|ADFA G3A:|
|:BGBd gfed|cBce agfe|fgaf d^cdf|eA^ce d2ef|
gfed (3efg a2-|-afge dcBA|BcdB G3B|1 A2FA G3 A:|2 A2FA G2dc||

